packages/ffe-icons/icons/filled/md/garage.svg

<svg xmlns="http://www.w3.org/2000/svg" height="24" viewBox="0 -960 960 960" width="24"><path d="M172.309-100.001q-30.308 0-51.308-21t-21-51.308v-615.382q0-30.308 21-51.308t51.308-21h615.382q30.308 0 51.308 21t21 51.308v615.382q0 30.308-21 51.308t-51.308 21H172.309Zm179.998-304.615q-14.692 0-25.038-10.346T316.923-440q0-14.692 10.346-25.038t25.038-10.346q14.692 0 25.038 10.346T387.691-440q0 14.692-10.346 25.038t-25.038 10.346Zm255.386 0q-14.692 0-25.038-10.346T572.309-440q0-14.692 10.346-25.038t25.038-10.346q14.692 0 25.038 10.346T643.077-440q0 14.692-10.346 25.038t-25.038 10.346ZM250.001-240.001q12.769 0 21.384-8.616Q280-257.232 280-270.001v-50h400v50q0 12.769 8.615 21.384 8.615 8.616 21.384 8.616t21.384-8.616q8.616-8.615 8.616-21.384v-231.076q0-6.23-.808-12.154-.808-5.923-2.808-11.538L685.46-671.384q-7.23-21.692-25.923-35.153-18.692-13.462-42.384-13.462H342.847q-23.692 0-42.384 13.462-18.693 13.461-25.923 35.153l-50.923 146.615q-2 5.615-2.808 11.538-.808 5.924-.808 12.154v231.076q0 12.769 8.616 21.384 8.615 8.616 21.384 8.616Zm49.075-319.998 32.231-91.923q1.154-3.847 4.232-5.962 3.077-2.116 7.308-2.116h274.306q4.231 0 7.308 2.116 3.078 2.115 4.232 5.962l32.231 91.923H299.076Z"/></svg>

<svg xmlns="http://www.w3.org/2000/svg" height="24" viewBox="0 -960 960 960" width="24"><path d="M172.31-100Q142-100 121-121q-21-21-21-51.31v-615.38Q100-818 121-839q21-21 51.31-21h615.38Q818-860 839-839q21 21 21 51.31v615.38Q860-142 839-121q-21 21-51.31 21H172.31Zm180-304.62q-14.7 0-25.04-10.34-10.35-10.35-10.35-25.04t10.35-25.04q10.34-10.34 25.04-10.34 14.69 0 25.04 10.34 10.34 10.35 10.34 25.04t-10.34 25.04q-10.35 10.34-25.04 10.34Zm255.38 0q-14.69 0-25.04-10.34-10.34-10.35-10.34-25.04t10.34-25.04q10.35-10.34 25.04-10.34 14.7 0 25.04 10.34 10.35 10.35 10.35 25.04t-10.35 25.04q-10.34 10.34-25.04 10.34ZM250-240q12.77 0 21.38-8.62Q280-257.23 280-270v-50h400v50q0 12.77 8.62 21.38Q697.23-240 710-240t21.38-8.62Q740-257.23 740-270v-231.08q0-6.23-.81-12.15t-2.81-11.54l-50.92-146.61q-7.23-21.7-25.92-35.16Q640.85-720 617.15-720h-274.3q-23.7 0-42.39 13.46t-25.92 35.16l-50.92 146.61q-2 5.62-2.81 11.54-.81 5.92-.81 12.15V-270q0 12.77 8.62 21.38Q237.23-240 250-240Zm49.08-320 32.23-91.92q1.15-3.85 4.23-5.96 3.08-2.12 7.31-2.12h274.3q4.23 0 7.31 2.12 3.08 2.11 4.23 5.96L660.92-560H299.08Z"/></svg>
